X:1
T:Pig Ankle Rag
R:rag
I:abc2nwc
M:4/4
L:1/8
K:D
af|:gecA- A2af|gecA- AABA|dABA dABA|
dBAF A2af|gecA- A2af|gecA- AABA|dABA dABA|dABd- d B d2|
B4d3e|f a2a bafd|Acea fdec|[1d2a3^g af:|[2d4c2B2
|:ABcA BcAB|cABc- cBAF|D2dA BdAB|dABd- dBAF|
ABcA BcAB|cABc- cBAF|D2dA BdAB|dABd- d B d2|
B4d3e|f a2a bafd|Acea fdec|[1[d4f4]c2B2:|[2d6|]
